dist/helicopter-icon.401b30bb.svg

<svg width="25" height="16" viewBox="0 0 25 16" fill="none" xmlns="http://www.w3.org/2000/svg">
<path d="M25 1.80658V0.890869H2.64457V1.80658H13.4083V3.63798H12.0243C11.475 3.63639 10.9478 3.87789 10.5605 4.30873L8.63293 6.44049C8.40043 6.69902 8.08412 6.84394 7.75443 6.84295H2.9004L2.07243 5.01155H0L0.966253 8.21649L0 11.4215H2.07243L2.9004 9.59006H7.75443C8.08412 9.58908 8.40043 9.73399 8.63293 9.99253L10.9745 12.5821C11.3618 13.0129 11.8889 13.2545 12.4383 13.2529H13.4083V15.0843H11.7523V16H24.586V15.0843H21.6881V13.2529H22.5161C23.6587 13.2514 24.5847 12.2273 24.586 10.9636V10.3487C24.5875 9.74115 24.3691 9.1582 23.9795 8.72977L21.224 5.68231C20.8366 5.25146 20.3095 5.00993 19.7601 5.01155H18.1336L17.4981 4.30873C17.1107 3.87789 16.5836 3.63639 16.0342 3.63798H14.2363V1.80658H25ZM2.23058 9.02415L1.56074 10.5058H1.14924L1.70108 8.67435H2.23058V9.02415ZM2.23058 7.75866H1.70108L1.14924 5.92724H1.56074L2.23058 7.40886V7.75866ZM20.8601 15.0843H14.2363V13.2529H20.8601V15.0843ZM18.3762 5.92724H19.7601C20.0898 5.92628 20.4061 6.07117 20.6386 6.3297L23.3941 9.37717C23.4455 9.43507 23.4922 9.49793 23.5336 9.56489C23.5453 9.58364 23.556 9.60287 23.5668 9.62165C23.597 9.67495 23.6238 9.73044 23.6471 9.78786C23.6541 9.8048 23.662 9.82126 23.6682 9.83868C23.6923 9.90659 23.7114 9.97661 23.7253 10.0479H18.7902C18.5615 10.0479 18.3762 9.84291 18.3762 9.59006V5.92724ZM16.0342 4.5537C16.3639 4.55271 16.6802 4.69763 16.9127 4.95613L17.5482 5.65895V9.59006C17.5482 10.3487 18.1042 10.9636 18.7902 10.9636H23.758C23.758 11.7222 23.202 12.3372 22.5161 12.3372H12.4383C12.1086 12.3382 11.7923 12.1932 11.5598 11.9347L9.2183 9.3451C8.83091 8.91426 8.30381 8.67276 7.75443 8.67435H3.05855V7.75866H7.75443C8.30381 7.76025 8.83091 7.51872 9.2183 7.08791L11.1459 4.95613C11.3784 4.69763 11.6946 4.55271 12.0243 4.5537H16.0342Z" fill="#2C4CBC"/>
<path d="M15.4781 5.46948H14.6502C13.9642 5.46948 13.4082 6.08446 13.4082 6.84305V9.59017C13.4082 10.3488 13.9642 10.9637 14.6502 10.9637H15.4781C16.1641 10.9637 16.7201 10.3488 16.7201 9.59017V6.84305C16.7201 6.08446 16.1641 5.46948 15.4781 5.46948ZM15.8921 9.59017C15.8921 9.84301 15.7068 10.048 15.4781 10.048H14.6502C14.4215 10.048 14.2362 9.84301 14.2362 9.59017V6.84305C14.2362 6.59021 14.4215 6.3852 14.6502 6.3852H15.4781C15.7068 6.3852 15.8921 6.59021 15.8921 6.84305V9.59017Z" fill="#2C4CBC"/>
</svg>

<svg xmlns="http://www.w3.org/2000/svg" width="25" height="16" fill="#2c4cbc" xmlns:v="https://vecta.io/nano"><path d="M25 1.807V.891H2.645v.916h10.764v1.831h-1.384c-.549-.002-1.076.24-1.464.671L8.633 6.44c-.232.259-.549.403-.878.402H2.9l-.828-1.831H0l.966 3.205L0 11.422h2.072L2.9 9.59h4.854c.33-.001.646.144.878.402l2.342 2.59c.387.431.914.672 1.464.671h.97v1.831h-1.656V16h12.834v-.916h-2.898v-1.831h.828c1.143-.002 2.069-1.026 2.07-2.289v-.615c.002-.608-.217-1.19-.606-1.619l-2.756-3.047c-.387-.431-.915-.672-1.464-.671h-1.626l-.636-.703c-.387-.431-.915-.672-1.464-.671h-1.798V1.807H25zM2.231 9.024l-.67 1.482H1.15l.552-1.831h.529v.35zm0-1.265h-.529L1.15 5.928h.412l.67 1.482v.35zm18.63 7.326h-6.624v-1.831h6.624v1.831zm-2.484-9.157h1.384c.33-.001.646.144.878.402l2.756 3.047a1.36 1.36 0 0 1 .139.188l.033.057a1.42 1.42 0 0 1 .08.166l.021.051a1.5 1.5 0 0 1 .057.209H18.79c-.229 0-.414-.205-.414-.458V5.927zm-2.342-1.374a1.18 1.18 0 0 1 .879.402l.636.703V9.59c0 .759.556 1.374 1.242 1.374h4.968c0 .759-.556 1.374-1.242 1.374h-10.08a1.18 1.18 0 0 1-.879-.402l-2.341-2.59c-.387-.431-.914-.672-1.464-.671H3.059v-.916h4.696c.549.002 1.076-.24 1.464-.671l1.928-2.132c.232-.258.549-.403.878-.402h4.01zm-.557.915h-.828c-.686 0-1.242.615-1.242 1.374V9.59c0 .759.556 1.374 1.242 1.374h.828c.686 0 1.242-.615 1.242-1.374V6.843c0-.759-.556-1.374-1.242-1.374zm.414 4.121c0 .253-.185.458-.414.458h-.828c-.229 0-.414-.205-.414-.458V6.843c0-.253.185-.458.414-.458h.828c.229 0 .414.205.414.458V9.59z"/></svg>
